X:27
T:Se\'an O Duibhir a Ghleanna
R:slow air
H:See also set dance #3
Z:id:hn-slowair-27
M:3/4
L:1/8
Q:1/4=110
K:D
de | f4 fg | a4 g2 | ef3-f2- | f4 ec | d4 c2 | d4 c2 | de3-e2- | e4 AB |
c3 d e2 | d4 c2 | AB3-B2- | B4 AF | G4 FG | A2 A4 | A6- | A4 :|
AA | c4 A2 | c4 d2 | ef3-f2- | f4 fg | a4 b2 | a4 gf | ga3-a2- | a4 ge |
f4 g2 | e4 c2 | de3-e2- | e4 ce | d4 c2 | A2 A4 | A6- | A4 ||
de | f4 g2 | a4 g2 | ef3-f2- | f4 ec | d4 c2 | d4 c2 | de3-e2- | e4 AB |
c3 d e2 | d4 c2 | AB3-B2- | B4 AF | G4 FG | A2 A4 | A6- | A4 ||

